static/site/images/special-projects/autoclave/svg/1-fill.svg

<svg width="151" height="82" viewBox="0 0 151 82" fill="none" xmlns="http://www.w3.org/2000/svg">
<path d="M10.1994 37.4519L13.4634 19.6919L51.7674 12.6839L39.9594 81.4199H19.9914L28.2474 33.6119L10.1994 37.4519Z" fill="#0073FF"/>
<path d="M66.6834 73.1622C66.5714 73.8662 66.6994 74.4502 67.0674 74.9142C67.4514 75.3782 68.0034 75.6262 68.7234 75.6582C69.3474 75.6742 69.9474 75.5382 70.5234 75.2502C71.0994 74.9622 71.6034 74.5942 72.0354 74.1462L71.5314 78.0342C71.0834 78.2902 70.5794 78.4982 70.0194 78.6582C69.4754 78.8182 68.8434 78.8982 68.1234 78.8982C66.9394 78.8982 65.8914 78.6582 64.9794 78.1782C64.0674 77.6822 63.3794 77.0022 62.9154 76.1382C62.4514 75.2742 62.2994 74.2742 62.4594 73.1382C62.6194 71.9702 63.0434 70.9542 63.7314 70.0902C64.4194 69.2262 65.2754 68.5622 66.2994 68.0982C67.3394 67.6182 68.4674 67.3782 69.6834 67.3782C70.4034 67.3782 71.0354 67.4582 71.5794 67.6182C72.1234 67.7782 72.6194 67.9782 73.0674 68.2182L72.5394 72.1062C72.2514 71.6102 71.8674 71.2342 71.3874 70.9782C70.9234 70.7222 70.4274 70.5942 69.8994 70.5942C69.4034 70.5942 68.9234 70.7142 68.4594 70.9542C68.0114 71.1782 67.6274 71.4902 67.3074 71.8902C66.9874 72.2742 66.7794 72.6982 66.6834 73.1622ZM86.8307 67.6182L84.9347 78.6582H80.9507L82.2467 71.1702H78.8627L77.5667 78.6582H73.5827L75.5027 67.6182H86.8307ZM87.7491 73.1382C87.9091 71.9862 88.3251 70.9782 88.9971 70.1142C89.6851 69.2502 90.5411 68.5782 91.5651 68.0982C92.5891 67.6182 93.7011 67.3782 94.9011 67.3782C96.0691 67.3782 97.0931 67.6262 97.9731 68.1222C98.8691 68.6022 99.5411 69.2742 99.9891 70.1382C100.453 71.0022 100.605 72.0022 100.445 73.1382C100.285 74.2902 99.8691 75.2982 99.1971 76.1622C98.5251 77.0262 97.6771 77.6982 96.6531 78.1782C95.6291 78.6582 94.5171 78.8982 93.3171 78.8982C92.1491 78.8982 91.1171 78.6582 90.2211 78.1782C89.3251 77.6822 88.6451 77.0022 88.1811 76.1382C87.7331 75.2742 87.5891 74.2742 87.7491 73.1382ZM91.9731 73.1622C91.8771 73.7702 91.9651 74.3142 92.2371 74.7942C92.5091 75.2582 92.9491 75.5062 93.5571 75.5382C94.1971 75.5542 94.7731 75.3222 95.2851 74.8422C95.8131 74.3622 96.1331 73.7862 96.2451 73.1142C96.3411 72.5062 96.2531 71.9622 95.9811 71.4822C95.7091 71.0022 95.2691 70.7542 94.6611 70.7382C94.0211 70.7062 93.4451 70.9382 92.9331 71.4342C92.4211 71.9142 92.1011 72.4902 91.9731 73.1622ZM105.965 73.1622C105.853 73.8662 105.981 74.4502 106.349 74.9142C106.733 75.3782 107.285 75.6262 108.005 75.6582C108.629 75.6742 109.229 75.5382 109.805 75.2502C110.381 74.9622 110.885 74.5942 111.317 74.1462L110.813 78.0342C110.365 78.2902 109.861 78.4982 109.301 78.6582C108.757 78.8182 108.125 78.8982 107.405 78.8982C106.221 78.8982 105.173 78.6582 104.261 78.1782C103.349 77.6822 102.661 77.0022 102.197 76.1382C101.733 75.2742 101.581 74.2742 101.741 73.1382C101.901 71.9702 102.325 70.9542 103.013 70.0902C103.701 69.2262 104.557 68.5622 105.581 68.0982C106.621 67.6182 107.749 67.3782 108.965 67.3782C109.685 67.3782 110.317 67.4582 110.861 67.6182C111.405 67.7782 111.901 67.9782 112.349 68.2182L111.821 72.1062C111.533 71.6102 111.149 71.2342 110.669 70.9782C110.205 70.7222 109.709 70.5942 109.181 70.5942C108.685 70.5942 108.205 70.7142 107.741 70.9542C107.293 71.1782 106.909 71.4902 106.589 71.8902C106.269 72.2742 106.061 72.6982 105.965 73.1622ZM113.296 73.1382C113.456 71.9862 113.872 70.9782 114.544 70.1142C115.232 69.2502 116.088 68.5782 117.112 68.0982C118.136 67.6182 119.248 67.3782 120.448 67.3782C121.616 67.3782 122.64 67.6262 123.52 68.1222C124.416 68.6022 125.088 69.2742 125.536 70.1382C126 71.0022 126.152 72.0022 125.992 73.1382C125.832 74.2902 125.416 75.2982 124.744 76.1622C124.072 77.0262 123.224 77.6982 122.2 78.1782C121.176 78.6582 120.064 78.8982 118.864 78.8982C117.696 78.8982 116.664 78.6582 115.768 78.1782C114.872 77.6822 114.192 77.0022 113.728 76.1382C113.28 75.2742 113.136 74.2742 113.296 73.1382ZM117.52 73.1622C117.424 73.7702 117.512 74.3142 117.784 74.7942C118.056 75.2582 118.496 75.5062 119.104 75.5382C119.744 75.5542 120.32 75.3222 120.832 74.8422C121.36 74.3622 121.68 73.7862 121.792 73.1142C121.888 72.5062 121.8 71.9622 121.528 71.4822C121.256 71.0022 120.816 70.7542 120.208 70.7382C119.568 70.7062 118.992 70.9382 118.48 71.4342C117.968 71.9142 117.648 72.4902 117.52 73.1622ZM127.696 72.7302C127.696 71.1942 127.92 69.7782 128.368 68.4822C128.832 67.1702 129.496 66.0262 130.36 65.0502C131.24 64.0582 132.304 63.2822 133.552 62.7222C134.512 62.3062 135.32 61.8982 135.976 61.4982C136.632 61.0982 137.136 60.5782 137.488 59.9382L141.496 59.9622C141.16 61.1302 140.512 62.1382 139.552 62.9862C138.592 63.8342 137.472 64.5302 136.192 65.0742C135.136 65.5222 134.216 66.0982 133.432 66.8022C132.664 67.4902 132.12 68.3062 131.8 69.2502C132.248 68.6742 132.776 68.2262 133.384 67.9062C134.008 67.5702 134.728 67.4022 135.544 67.4022C136.68 67.4022 137.648 67.6582 138.448 68.1702C139.264 68.6662 139.864 69.3462 140.248 70.2102C140.648 71.0742 140.776 72.0502 140.632 73.1382C140.488 74.2582 140.096 75.2502 139.456 76.1142C138.816 76.9782 137.992 77.6582 136.984 78.1542C135.976 78.6502 134.848 78.8982 133.6 78.8982C132.24 78.8982 131.12 78.6102 130.24 78.0342C129.376 77.4582 128.736 76.7062 128.32 75.7782C127.904 74.8342 127.696 73.8182 127.696 72.7302ZM132.04 73.5942C132.04 74.1382 132.184 74.6022 132.472 74.9862C132.776 75.3542 133.208 75.5382 133.768 75.5382C134.408 75.5382 134.976 75.3062 135.472 74.8422C135.968 74.3622 136.272 73.7862 136.384 73.1142C136.512 72.3942 136.4 71.8102 136.048 71.3622C135.712 70.9142 135.24 70.6902 134.632 70.6902C134.216 70.6902 133.808 70.8022 133.408 71.0262C133.008 71.2342 132.68 71.5542 132.424 71.9862C132.168 72.4022 132.04 72.9382 132.04 73.5942L131.92 73.5462V73.5702L132.04 73.5942Z" fill="#0073FF"/>
</svg>

<svg width="151" height="82" fill="none" xmlns="http://www.w3.org/2000/svg"><path d="M10.2 37.452l3.263-17.76 38.304-7.008L39.96 81.42H19.991l8.256-47.808-18.048 3.84zm56.483 35.71c-.112.704.016 1.288.384 1.752.384.464.936.712 1.656.744a3.755 3.755 0 001.8-.408 5.496 5.496 0 001.512-1.104l-.504 3.888a6.802 6.802 0 01-1.512.624c-.544.16-1.176.24-1.896.24-1.184 0-2.232-.24-3.144-.72-.912-.496-1.6-1.176-2.064-2.04-.464-.864-.616-1.864-.456-3 .16-1.168.584-2.184 1.272-3.048a6.843 6.843 0 012.568-1.992c1.04-.48 2.168-.72 3.384-.72.72 0 1.352.08 1.896.24.544.16 1.04.36 1.488.6l-.528 3.888a2.89 2.89 0 00-1.152-1.128 3.033 3.033 0 00-1.488-.384c-.496 0-.976.12-1.44.36a3.42 3.42 0 00-1.152.936c-.32.384-.528.808-.624 1.272zm20.148-5.544l-1.896 11.04H80.95l1.296-7.488h-3.384l-1.296 7.488h-3.984l1.92-11.04H86.83zm.918 5.52c.16-1.152.576-2.16 1.248-3.024a7.068 7.068 0 012.568-2.016c1.024-.48 2.136-.72 3.336-.72 1.168 0 2.192.248 3.072.744.896.48 1.568 1.152 2.016 2.016.464.864.616 1.864.456 3-.16 1.152-.576 2.16-1.248 3.024a6.856 6.856 0 01-2.544 2.016c-1.024.48-2.136.72-3.336.72-1.168 0-2.2-.24-3.096-.72-.896-.496-1.576-1.176-2.04-2.04-.448-.864-.592-1.864-.432-3zm4.224.024c-.096.608-.008 1.152.264 1.632.272.464.712.712 1.32.744.64.016 1.216-.216 1.728-.696.528-.48.848-1.056.96-1.728.096-.608.008-1.152-.264-1.632s-.712-.728-1.32-.744c-.64-.032-1.216.2-1.728.696a3.117 3.117 0 00-.96 1.728zm13.992 0c-.112.704.016 1.288.384 1.752.384.464.936.712 1.656.744a3.755 3.755 0 001.8-.408 5.496 5.496 0 001.512-1.104l-.504 3.888a6.802 6.802 0 01-1.512.624c-.544.16-1.176.24-1.896.24-1.184 0-2.232-.24-3.144-.72-.912-.496-1.6-1.176-2.064-2.04-.464-.864-.616-1.864-.456-3 .16-1.168.584-2.184 1.272-3.048a6.843 6.843 0 012.568-1.992c1.04-.48 2.168-.72 3.384-.72.72 0 1.352.08 1.896.24.544.16 1.04.36 1.488.6l-.528 3.888a2.89 2.89 0 00-1.152-1.128 3.033 3.033 0 00-1.488-.384c-.496 0-.976.12-1.44.36a3.42 3.42 0 00-1.152.936c-.32.384-.528.808-.624 1.272zm7.331-.024c.16-1.152.576-2.16 1.248-3.024a7.068 7.068 0 012.568-2.016c1.024-.48 2.136-.72 3.336-.72 1.168 0 2.192.248 3.072.744.896.48 1.568 1.152 2.016 2.016.464.864.616 1.864.456 3-.16 1.152-.576 2.16-1.248 3.024a6.856 6.856 0 01-2.544 2.016c-1.024.48-2.136.72-3.336.72-1.168 0-2.2-.24-3.096-.72-.896-.496-1.576-1.176-2.04-2.04-.448-.864-.592-1.864-.432-3zm4.224.024c-.096.608-.008 1.152.264 1.632.272.464.712.712 1.32.744.64.016 1.216-.216 1.728-.696.528-.48.848-1.056.96-1.728.096-.608.008-1.152-.264-1.632s-.712-.728-1.32-.744c-.64-.032-1.216.2-1.728.696a3.117 3.117 0 00-.96 1.728zm10.176-.432c0-1.536.224-2.952.672-4.248.464-1.312 1.128-2.456 1.992-3.432a9.3 9.3 0 013.192-2.328c.96-.416 1.768-.824 2.424-1.224.656-.4 1.16-.92 1.512-1.56l4.008.024c-.336 1.168-.984 2.176-1.944 3.024-.96.848-2.08 1.544-3.36 2.088a9.845 9.845 0 00-2.76 1.728 5.701 5.701 0 00-1.632 2.448 4.87 4.87 0 011.584-1.344c.624-.336 1.344-.504 2.16-.504 1.136 0 2.104.256 2.904.768a4.455 4.455 0 011.8 2.04c.4.864.528 1.84.384 2.928-.144 1.12-.536 2.112-1.176 2.976a6.706 6.706 0 01-2.472 2.04c-1.008.496-2.136.744-3.384.744-1.36 0-2.48-.288-3.36-.864a5.245 5.245 0 01-1.92-2.256 7.474 7.474 0 01-.624-3.048zm4.344.864c0 .544.144 1.008.432 1.392.304.368.736.552 1.296.552.64 0 1.208-.232 1.704-.696.496-.48.8-1.056.912-1.728.128-.72.016-1.304-.336-1.752-.336-.448-.808-.672-1.416-.672-.416 0-.824.112-1.224.336-.4.208-.728.528-.984.96-.256.416-.384.952-.384 1.608l-.12-.048v.024l.12.024z" fill="#0073FF"/></svg>
